svg/OSM-icons/tourism #734a08 °ffffff !label=entourism,deTourismus/30043;tourism=attraction;!name=;!fee=;!#attraction=summer_toboggan;[addr];[contact];!label=ensummer toboggan,deSommer- Rodelbahn;.svg

<svg xmlns="http://www.w3.org/2000/svg" viewBox="0 0 580 580" enable-background="new 0 0 580 580"><path fill="#111" stroke="#eee" stroke-width="3.408" d="m66.28 1.768c-41.34 0-64.57 21.371-64.57 65.04v450.12c0 40.844 20.895 62.23 62.19 62.23h452.02c41.31 0 62.23-20.315 62.23-62.23v-450.12c0-42.601-20.925-65.04-63.52-65.04-.004 0-448.5-.143-448.35 0z"/><path fill="#fff" d="m69.13 428.5c6.585 0 11.923-5.339 11.923-11.923v-19.909h49.48v19.909c0 6.584 5.338 11.923 11.923 11.923 6.585 0 11.923-5.339 11.923-11.923v-253.25h22.584c7.655 20.526 30.583 76.05 73.11 132.51 30.987 41.14 65.976 74.12 104 98.04 47.861 30.11 100.56 45.802 156.62 46.652.062.0001.122.0001.184.0001 6.501 0 11.819-5.22 11.919-11.743.1-6.584-5.157-12-11.742-12.1-93.83-1.422-175.09-46.724-241.52-134.65-50.24-66.5-72.6-133.67-72.819-134.33-1.602-4.902-6.175-8.219-11.333-8.219h-116.25c-6.585 0-11.923 5.338-11.923 11.923v265.17c0 6.585 5.338 11.924 11.923 11.924m11.924-265.17h49.48v37.555h-49.48v-37.555m0 61.4h49.48v33.467h-49.48v-33.467m0 57.31h49.48v33.467h-49.48v-33.467m0 57.31h49.48v33.467h-49.48v-33.467"/></svg>

<?xml version="1.0" encoding="utf-8"?>
<!-- Generator: Adobe Illustrator 15.0.0, SVG Export Plug-In . SVG Version: 6.00 Build 0)  -->
<!DOCTYPE svg PUBLIC "-//W3C//DTD SVG 1.1//EN" "http://www.w3.org/Graphics/SVG/1.1/DTD/svg11.dtd">
<svg version="1.1" xmlns="http://www.w3.org/2000/svg" xmlns:xlink="http://www.w3.org/1999/xlink" x="0px" y="0px" width="580px"
	 height="580px" viewBox="0 0 580 580" enable-background="new 0 0 580 580" xml:space="preserve">
<g id="Layer_1">
	<g id="Layer_1_1_">
		<g id="Layer_2">
			<g id="g1327">
				<path id="path1329" fill="#111111" stroke="#EEEEEE" stroke-width="3.408" d="M66.275,1.768
					c-41.335,0-64.571,21.371-64.571,65.036v450.123c0,40.844,20.895,62.229,62.192,62.229H515.92
					c41.307,0,62.229-20.315,62.229-62.229V66.804c0-42.601-20.925-65.036-63.521-65.036C514.624,1.768,66.133,1.625,66.275,1.768z"
					/>
			</g>
		</g>
	</g>
</g>
<g id="Layer_2_1_">
	<path fill="#FFFFFF" d="M69.132,428.495c6.585,0,11.923-5.339,11.923-11.923v-19.909h49.478v19.909
		c0,6.584,5.338,11.923,11.923,11.923c6.585,0,11.923-5.339,11.923-11.923v-253.25h22.584c7.655,20.526,30.583,76.053,73.109,132.51
		c30.987,41.139,65.976,74.125,103.996,98.039c47.861,30.106,100.555,45.802,156.618,46.652c0.062,0.001,0.122,0.001,0.184,0.001
		c6.501,0,11.819-5.22,11.919-11.743c0.1-6.584-5.157-12.002-11.742-12.103c-93.827-1.422-175.086-46.724-241.517-134.651
		c-50.244-66.5-72.601-133.668-72.819-134.333c-1.602-4.902-6.175-8.219-11.333-8.219H69.132c-6.585,0-11.923,5.338-11.923,11.923
		v265.173C57.209,423.156,62.547,428.495,69.132,428.495z M81.056,163.322h49.478v37.555H81.056V163.322z M81.056,224.724h49.478
		v33.467H81.056V224.724z M81.056,282.037h49.478v33.467H81.056V282.037z M81.056,339.35h49.478v33.467H81.056V339.35z"/>
</g>
</svg>
